week1assignment/img/SVG/logo_fifa.svg

<svg fill="none" height="100" viewBox="0 0 308 100" width="308" xmlns="http://www.w3.org/2000/svg" xmlns:xlink="http://www.w3.org/1999/xlink"><clipPath id="a"><path d="m0 .38501h308v99h-308z"/></clipPath><g clip-path="url(#a)" fill="#f8f8ff"><path d="m0 .469421v98.915579h31.2091v-35.6969h21.6382l8.4038-21.6858h-30.042v-20.0159h36.6171l7.9887-21.516979z"/><path d="m85.3015.469421-.0842 98.915579h30.8777v-98.915579z"/><path d="m237.016 67.1065 11.899-41.2013 12.314 41.2013h-24.219zm28.375-66.637079h-31.955l-35.45 98.915579h29.796l3.826-13.2635h34.704l3.994 13.2635h30.71z"/><path d="m137.312.469421v98.915579h31.21v-35.6969h21.638l8.488-21.6858h-30.126v-20.0159h36.617l8.073-21.516979z"/><path d="m294.435 10.9777h2.166c.33 0 .667 0 .998-.0844.331 0 .584-.1688.83-.2472.247-.1688.415-.3315.584-.5848.168-.25317.246-.58476.246-1.00075s-.084-.66921-.246-.91639c-.169-.24718-.331-.41599-.584-.5004-.246-.1688-.583-.25321-.83-.25321-.331 0-.583-.0844-.914-.0844h-2.166v3.67155zm-2.497-5.58873h4.909c1.582 0 2.827.24718 3.579.83198.831.5848 1.252 1.58559 1.252 3.00238 0 1.08517-.253 1.91717-.915 2.50197-.583.5848-1.413.9164-2.496 1.0008l3.495 5.7576h-2.497l-3.41-5.6732h-1.414v5.6732h-2.497v-13.09473zm4.494 15.92823c1.251 0 2.328-.2472 3.411-.6692 1.083-.5004 1.997-1.0852 2.749-1.9172.752-.8319 1.414-1.8327 1.913-2.9179.415-1.1696.668-2.4176.668-3.756s-.247-2.58639-.668-3.75599c-.499-1.1696-1.083-2.08599-1.913-2.91797s-1.666-1.50119-2.749-1.91718-2.166-.6692-3.411-.6692-2.328.24718-3.411.6692c-1.083.5004-1.997 1.0852-2.749 1.91718s-1.414 1.83277-1.829 2.91797c-.415 1.1696-.667 2.41759-.667 3.75599s.246 2.5864.667 3.756c.5 1.1696 1.083 2.086 1.829 2.9179.83.832 1.751 1.5012 2.749 1.9172.999.416 2.166.6692 3.411.6692zm0 2.2548c-1.582 0-3.08-.3316-4.494-.9164-1.413-.5848-2.58-1.4167-3.663-2.5019-.999-1.0008-1.829-2.2548-2.412-3.6716-.584-1.4168-.915-2.918-.915-4.5036s.331-3.08676.915-4.50354c.583-1.41679 1.413-2.58639 2.412-3.67158 1.083-1.0852 2.25-1.83278 3.663-2.50198 1.414-.669207 2.912-.91639 4.494-.91639s3.08.253212 4.494.91639c1.413.5848 2.58 1.41678 3.663 2.50198.999 1.08519 1.913 2.25479 2.497 3.67158.583 1.41678.914 2.91794.914 4.50354s-.331 3.0868-.914 4.5036c-.584 1.4168-1.414 2.5864-2.497 3.6716-.998 1.0852-2.25 1.9171-3.663 2.5019-1.414.5848-2.912.9164-4.494.9164z"/></g></svg>

<svg width="308" height="100" viewBox="0 0 308 100" fill="none" xmlns="http://www.w3.org/2000/svg">
<g clip-path="url(#clip0_322_264)">
<path d="M0 0.469421V99.385H31.2091V63.6881H52.8473L61.2511 42.0023H31.2091V21.9864H67.8262L75.8149 0.469421H0Z" fill="#F8F8FF"/>
<path d="M85.3015 0.469421L85.2173 99.385H116.095V0.469421H85.3015Z" fill="#F8F8FF"/>
<path d="M237.016 67.1065L248.915 25.9052L261.229 67.1065H237.01H237.016ZM265.391 0.469421H233.436L197.986 99.385H227.782L231.608 86.1215H266.312L270.306 99.385H301.016L265.391 0.469421Z" fill="#F8F8FF"/>
<path d="M137.312 0.469421V99.385H168.522V63.6881H190.16L198.648 42.0023H168.522V21.9864H205.139L213.212 0.469421H137.312Z" fill="#F8F8FF"/>
<path d="M294.435 10.9777H296.601C296.931 10.9777 297.268 10.9777 297.599 10.8933C297.93 10.8933 298.183 10.7245 298.429 10.6461C298.676 10.4773 298.844 10.3146 299.013 10.0613C299.181 9.80813 299.259 9.47654 299.259 9.06055C299.259 8.64456 299.175 8.39134 299.013 8.14416C298.844 7.89698 298.682 7.72817 298.429 7.64376C298.183 7.47496 297.846 7.39055 297.599 7.39055C297.268 7.39055 297.016 7.30615 296.685 7.30615H294.519V10.9777H294.435ZM291.938 5.38897H296.847C298.429 5.38897 299.674 5.63615 300.426 6.22095C301.257 6.80575 301.678 7.80654 301.678 9.22333C301.678 10.3085 301.425 11.1405 300.763 11.7253C300.18 12.3101 299.35 12.6417 298.267 12.7261L301.762 18.4837H299.265L295.855 12.8105H294.441V18.4837H291.944V5.38897H291.938ZM296.432 21.3172C297.683 21.3172 298.76 21.07 299.843 20.648C300.926 20.1476 301.84 19.5628 302.592 18.7308C303.344 17.8989 304.006 16.8981 304.505 15.8129C304.92 14.6433 305.173 13.3953 305.173 12.0569C305.173 10.7185 304.926 9.47051 304.505 8.30091C304.006 7.13131 303.422 6.21492 302.592 5.38294C301.762 4.55096 300.926 3.88175 299.843 3.46576C298.76 3.04977 297.677 2.79656 296.432 2.79656C295.187 2.79656 294.104 3.04374 293.021 3.46576C291.938 3.96616 291.024 4.55096 290.272 5.38294C289.52 6.21492 288.858 7.21571 288.443 8.30091C288.028 9.47051 287.776 10.7185 287.776 12.0569C287.776 13.3953 288.022 14.6433 288.443 15.8129C288.943 16.9825 289.526 17.8989 290.272 18.7308C291.102 19.5628 292.023 20.232 293.021 20.648C294.02 21.064 295.187 21.3172 296.432 21.3172ZM296.432 23.572C294.85 23.572 293.352 23.2404 291.938 22.6556C290.525 22.0708 289.358 21.2389 288.275 20.1537C287.276 19.1529 286.446 17.8989 285.863 16.4821C285.279 15.0653 284.948 13.5641 284.948 11.9785C284.948 10.3929 285.279 8.89174 285.863 7.47496C286.446 6.05817 287.276 4.88857 288.275 3.80338C289.358 2.71818 290.525 1.9706 291.938 1.3014C293.352 0.632193 294.85 0.38501 296.432 0.38501C298.014 0.38501 299.512 0.638222 300.926 1.3014C302.339 1.8862 303.506 2.71818 304.589 3.80338C305.588 4.88857 306.502 6.05817 307.086 7.47496C307.669 8.89174 308 10.3929 308 11.9785C308 13.5641 307.669 15.0653 307.086 16.4821C306.502 17.8989 305.672 19.0685 304.589 20.1537C303.591 21.2389 302.339 22.0708 300.926 22.6556C299.512 23.2404 298.014 23.572 296.432 23.572Z" fill="#F8F8FF"/>
</g>
<defs>
<clipPath id="clip0_322_264">
<rect width="308" height="99" fill="white" transform="translate(0 0.38501)"/>
</clipPath>
</defs>
</svg>
